X:5108
T:The Top Of The Tree
M:4/4
R:Reel
L:1/8
Q:150
C:Aidan Crossey
K:A
AB|cE (3EFE FAAB|cABc B2AB|cE (3EFE FAAf|ecBc A2AB|
cE (3EFE FAAB|cABc (3ded cd|ecdB cABG|(3ABA cB A2||
cd|ec (3cdc dB (3BcB|cA (3ABc B2cd|ec (3cdc dB (3BcB|(3cBA BG A2cd|
ec(3cdc dB(3BcB|cA (3ABc (3ded cd|ecdB cABG|(3ABA cB A2||
